X:1471
L:1/8
M:4/4
K:Dmix
 dB |: AD (3DDD (F{G}F{E}F)G | AD (3DDD c2 BG | ADDE FEFG | AdcA G2 FG :| Ad (3(d^cd) AGFG | 
 Ad (3(d^cd) fdec | Ad (3(d^cd) AGFG | AB{cd}cA (3(GAG) FG | Ad (3(d^cd) AGFG | Adde f{a}fefg | 
 af (3gfe fde^c | dcAF G2 dB ||

